src/assets/svgs/s2.svg

<svg width="48" height="48" viewBox="0 0 48 48" fill="none" xmlns="http://www.w3.org/2000/svg">
<path d="M47 11.5647H44.1437V9.35766C44.1437 8.94635 43.9047 8.57478 43.5362 8.41324C37.5038 5.76905 30.0819 6.88971 23.9999 11.3192C17.9181 6.88971 10.496 5.76936 4.46378 8.41324C4.09531 8.57478 3.85633 8.94635 3.85633 9.35766V11.5647H0.999985C0.447789 11.5647 0 12.0244 0 12.5915V40.9732C0 41.5403 0.447789 42 0.999985 42H24.0001H47C47.5523 42 48 41.5402 48 40.9732V12.5916C48 12.0245 47.5523 11.5647 47 11.5647ZM1.99997 39.9464V13.6184H3.85633V37.7394C3.85633 38.0843 4.02503 38.4061 4.30524 38.5962C4.58555 38.7862 4.9399 38.8189 5.24886 38.6837C9.93292 36.6305 15.5896 37.144 20.6102 39.9464H1.99997ZM23.0001 39.0099C19.3503 36.6217 15.2903 35.3818 11.3714 35.3818C9.47934 35.3818 7.62044 35.6707 5.8564 36.2591V12.6035C5.8564 12.5994 5.85701 12.5955 5.85701 12.5916C5.85701 12.5876 5.8565 12.5837 5.8564 12.5797V10.0522C11.1902 7.99943 17.6577 9.14741 23.0001 13.1094V39.0099ZM25 13.1094C30.3423 9.14731 36.8102 7.99943 42.1437 10.0522V12.5796C42.1437 12.5836 42.1431 12.5875 42.1431 12.5915C42.1431 12.5954 42.1436 12.5994 42.1437 12.6034V36.2589C36.7255 34.4517 30.4117 35.4688 25 39.0098V13.1094V13.1094ZM46 39.9464H27.3897C32.4104 37.144 38.067 36.6306 42.7511 38.6837C43.0601 38.8193 43.4148 38.7863 43.6948 38.5962C43.9751 38.4061 44.1437 38.0842 44.1437 37.7394V13.6184H46V39.9464Z" fill="#042925"/>
</svg>

<svg width="48" height="48" fill="none" xmlns="http://www.w3.org/2000/svg"><path d="M47 11.565h-2.856V9.358c0-.412-.24-.783-.608-.945C37.504 5.77 30.082 6.89 24 11.32 17.918 6.89 10.496 5.77 4.464 8.413a1.028 1.028 0 0 0-.608.945v2.207H1c-.552 0-1 .46-1 1.027v28.381C0 41.54.448 42 1 42h46c.552 0 1-.46 1-1.027V12.592c0-.568-.448-1.027-1-1.027ZM2 39.946V13.618h1.856V37.74c0 .345.169.667.45.857.28.19.634.223.943.088 4.684-2.053 10.34-1.54 15.361 1.262H2Zm21-.936c-3.65-2.388-7.71-3.628-11.629-3.628-1.892 0-3.75.289-5.515.877V12.604l.001-.012v-2.54C11.19 8 17.656 9.147 23 13.11v25.9Zm2-25.9C30.342 9.146 36.81 8 42.144 10.051V36.26c-5.419-1.807-11.732-.79-17.144 2.75v-25.9Zm21 26.836H27.39c5.02-2.802 10.677-3.315 15.361-1.262a.977.977 0 0 0 .944-.088c.28-.19.449-.512.449-.857V13.62H46v26.327Z" fill="#042925"/></svg>
